docs/lut/cube_17.cube
TITLE Generated LUT
LUT_3D_SIZE 9
DOMAIN_MIN 0.0 0.0 0.0
DOMAIN_MAX 1.0 1.0 1.0
0.000000 0.000000 0.000000
0.005229 0.000000 0.062745
0.000000 0.000000 0.250000
0.000000 0.000000 0.375000
0.000000 0.000000 0.500000
0.000000 0.000000 0.625000
0.000000 0.000000 0.750000
0.000000 0.000000 0.875000
0.000000 0.000000 1.000000
0.000010 0.000086 0.000003
0.000000 0.125000 0.125000
0.000000 0.125000 0.250000
0.000000 0.125000 0.375000
0.000000 0.125000 0.500000
0.000000 0.125000 0.625000
0.000000 0.125000 0.750000
0.000000 0.125000 0.875000
0.000000 0.125000 1.000000
0.000000 0.250000 0.000000
0.000000 0.250000 0.125000
0.000000 0.250000 0.250000
0.000000 0.250000 0.375000
0.000000 0.250000 0.500000
0.000000 0.250000 0.625000
0.000000 0.250000 0.750000
0.000000 0.250000 0.875000
0.000000 0.250000 1.000000
0.000000 0.375000 0.000000
0.000000 0.375000 0.125000
0.000000 0.375000 0.250000
0.000000 0.375000 0.375000
0.000000 0.375000 0.500000
0.000000 0.375000 0.625000
0.000000 0.375000 0.750000
0.000000 0.375000 0.875000
0.000000 0.375000 1.000000
0.000000 0.500000 0.000000
0.000000 0.500000 0.125000
0.000000 0.500000 0.250000
0.000000 0.500000 0.375000
0.000000 0.500000 0.500000
0.000000 0.500000 0.625000
0.000000 0.500000 0.750000
0.000000 0.500000 0.875000
0.000000 0.500000 1.000000
0.000000 0.625000 0.000000
0.000000 0.625000 0.125000
0.000000 0.625000 0.250000
0.000000 0.625000 0.375000
0.000000 0.625000 0.500000
0.000000 0.625000 0.625000
0.000000 0.625000 0.750000
0.000000 0.625000 0.875000
0.000000 0.625000 1.000000
0.000000 0.750000 0.000000
0.000000 0.750000 0.125000
0.000000 0.750000 0.250000
0.000000 0.750000 0.375000
0.000000 0.750000 0.500000
0.000000 0.750000 0.625000
0.000000 0.750000 0.750000
0.000000 0.750000 0.875000
0.000000 0.750000 1.000000
0.000000 0.875000 0.000000
0.000000 0.875000 0.125000
0.000000 0.875000 0.250000
0.000000 0.875000 0.375000
0.000000 0.875000 0.500000
0.000000 0.875000 0.625000
0.000000 0.875000 0.750000
0.000000 0.875000 0.875000
0.000000 0.875000 1.000000
0.000000 1.000000 0.000000
0.000000 1.000000 0.125000
0.000000 1.000000 0.250000
0.000000 1.000000 0.375000
0.000000 1.000000 0.500000
0.000000 1.000000 0.625000
0.000000 1.000000 0.750000
0.000000 1.000000 0.875000
0.000000 1.000000 1.000000
0.000000 0.000000 0.000000
0.125000 0.000000 0.125000
0.125000 0.000000 0.250000
0.125000 0.000000 0.375000
0.125000 0.000000 0.500000
0.125000 0.000000 0.625000
0.125000 0.000000 0.750000
0.125000 0.000000 0.875000
0.125000 0.000000 1.000000
0.005993 0.009480 0.000528
0.023658 0.052201 0.005593
0.023339 0.072136 0.094482
0.086275 0.003922 0.201307
0.125000 0.125000 0.500000
0.125000 0.125000 0.625000
0.125000 0.125000 0.750000
0.125000 0.125000 0.875000
0.125000 0.125000 1.000000
0.028078 0.106510 0.004549
0.090254 0.108712 0.027566
0.094039 0.107686 0.099843
0.087422 0.104326 0.227989
0.141176 0.101961 0.407843
0.125000 0.250000 0.625000
0.125000 0.250000 0.750000
0.125000 0.250000 0.875000
0.125000 0.250000 1.000000
0.125000 0.375000 0.000000
0.125000 0.375000 0.125000
0.125000 0.375000 0.250000
0.125000 0.375000 0.375000
0.125000 0.375000 0.500000
0.125000 0.375000 0.625000
0.125000 0.375000 0.750000
0.125000 0.375000 0.875000
0.125000 0.375000 1.000000
0.125000 0.500000 0.000000
0.125000 0.500000 0.125000
0.125000 0.500000 0.250000
0.125000 0.500000 0.375000
0.125000 0.500000 0.500000
0.125000 0.500000 0.625000
0.125000 0.500000 0.750000
0.125000 0.500000 0.875000
0.125000 0.500000 1.000000
0.125000 0.625000 0.000000
0.125000 0.625000 0.125000
0.125000 0.625000 0.250000
0.125000 0.625000 0.375000
0.125000 0.625000 0.500000
0.125000 0.625000 0.625000
0.125000 0.625000 0.750000
0.125000 0.625000 0.875000
0.125000 0.625000 1.000000
0.125000 0.750000 0.000000
0.125000 0.750000 0.125000
0.125000 0.750000 0.250000
0.125000 0.750000 0.375000
0.125000 0.750000 0.500000
0.125000 0.750000 0.625000
0.125000 0.750000 0.750000
0.125000 0.750000 0.875000
0.125000 0.750000 1.000000
0.125000 0.875000 0.000000
0.125000 0.875000 0.125000
0.125000 0.875000 0.250000
0.125000 0.875000 0.375000
0.125000 0.875000 0.500000
0.125000 0.875000 0.625000
0.125000 0.875000 0.750000
0.125000 0.875000 0.875000
0.125000 0.875000 1.000000
0.125000 1.000000 0.000000
0.125000 1.000000 0.125000
0.125000 1.000000 0.250000
0.125000 1.000000 0.375000
0.125000 1.000000 0.500000
0.125000 1.000000 0.625000
0.125000 1.000000 0.750000
0.125000 1.000000 0.875000
0.125000 1.000000 1.000000
0.250000 0.000000 0.000000
0.250000 0.000000 0.125000
0.250000 0.000000 0.250000
0.250000 0.000000 0.375000
0.250000 0.000000 0.500000
0.250000 0.000000 0.625000
0.250000 0.000000 0.750000
0.250000 0.000000 0.875000
0.250000 0.000000 1.000000
0.107161 0.021185 0.004561
0.112622 0.094708 0.007480
0.117416 0.072434 0.100577
0.124887 0.069080 0.230769
0.131222 0.015686 0.394570
0.250000 0.125000 0.625000
0.250000 0.125000 0.750000
0.250000 0.125000 0.875000
0.250000 0.125000 1.000000
0.113725 0.109804 0.007843
0.117851 0.109855 0.057334
0.121311 0.109612 0.101808
0.129411 0.109803 0.235292
0.141176 0.101961 0.407843
0.250000 0.250000 0.625000
0.250000 0.250000 0.750000
0.250000 0.250000 0.875000
0.250000 0.250000 1.000000
0.125490 0.250980 0.011765
0.127942 0.250977 0.039911
0.133405 0.251126 0.102025
0.141177 0.250981 0.235292
0.152940 0.247056 0.411766
0.168627 0.239216 0.627451
0.250000 0.375000 0.750000
0.250000 0.375000 0.875000
0.250000 0.375000 1.000000
0.250000 0.500000 0.000000
0.250000 0.500000 0.125000
0.250000 0.500000 0.250000
0.156863 0.450980 0.235294
0.250000 0.500000 0.500000
0.180392 0.435294 0.627451
0.250000 0.500000 0.750000
0.250000 0.500000 0.875000
0.250000 0.500000 1.000000
0.250000 0.625000 0.000000
0.250000 0.625000 0.125000
0.250000 0.625000 0.250000
0.250000 0.625000 0.375000
0.250000 0.625000 0.500000
0.250000 0.625000 0.625000
0.250000 0.625000 0.750000
0.250000 0.625000 0.875000
0.250000 0.625000 1.000000
0.250000 0.750000 0.000000
0.250000 0.750000 0.125000
0.250000 0.750000 0.250000
0.250000 0.750000 0.375000
0.250000 0.750000 0.500000
0.250000 0.750000 0.625000
0.250000 0.750000 0.750000
0.250000 0.750000 0.875000
0.250000 0.750000 1.000000
0.250000 0.875000 0.000000
0.250000 0.875000 0.125000
0.250000 0.875000 0.250000
0.250000 0.875000 0.375000
0.250000 0.875000 0.500000
0.250000 0.875000 0.625000
0.250000 0.875000 0.750000
0.250000 0.875000 0.875000
0.250000 0.875000 1.000000
0.250000 1.000000 0.000000
0.250000 1.000000 0.125000
0.250000 1.000000 0.250000
0.250000 1.000000 0.375000
0.250000 1.000000 0.500000
0.250000 1.000000 0.625000
0.250000 1.000000 0.750000
0.250000 1.000000 0.875000
0.250000 1.000000 1.000000
0.375000 0.000000 0.000000
0.375000 0.000000 0.125000
0.375000 0.000000 0.250000
0.375000 0.000000 0.375000
0.375000 0.000000 0.500000
0.375000 0.000000 0.625000
0.375000 0.000000 0.750000
0.375000 0.000000 0.875000
0.375000 0.000000 1.000000
0.375000 0.125000 0.000000
0.375000 0.125000 0.125000
0.375000 0.125000 0.250000
0.375000 0.125000 0.375000
0.375000 0.125000 0.500000
0.375000 0.125000 0.625000
0.375000 0.125000 0.750000
0.375000 0.125000 0.875000
0.375000 0.125000 1.000000
0.262745 0.109804 0.011765
0.271246 0.112649 0.082773
0.274442 0.113755 0.109845
0.278431 0.113726 0.243137
0.290196 0.109804 0.423530
0.305882 0.105882 0.643137
0.375000 0.250000 0.750000
0.375000 0.250000 0.875000
0.375000 0.250000 1.000000
0.375000 0.375000 0.000000
0.276416 0.254904 0.059506
0.278548 0.255030 0.105933
0.286579 0.263067 0.242842
0.301965 0.254906 0.431375
0.309804 0.250980 0.643137
0.375000 0.375000 0.750000
0.375000 0.375000 0.875000
0.375000 0.375000 1.000000
0.375000 0.500000 0.000000
0.288741 0.453448 0.034598
0.297962 0.462833 0.105894
0.301816 0.462860 0.243163
0.309808 0.458819 0.423524
0.325491 0.450980 0.650982
0.349020 0.450980 0.831373
0.375000 0.500000 0.875000
0.375000 0.500000 1.000000
0.375000 0.625000 0.000000
0.375000 0.625000 0.125000
0.313726 0.698039 0.101961
0.321569 0.698039 0.243137
0.333333 0.698039 0.431373
0.345098 0.694118 0.650980
0.364706 0.682353 0.831373
0.375000 0.625000 0.875000
0.375000 0.625000 1.000000
0.375000 0.750000 0.000000
0.375000 0.750000 0.125000
0.375000 0.750000 0.250000
0.375000 0.750000 0.375000
0.375000 0.750000 0.500000
0.375000 0.750000 0.625000
0.375000 0.750000 0.750000
0.375000 0.750000 0.875000
0.375000 0.750000 1.000000
0.375000 0.875000 0.000000
0.375000 0.875000 0.125000
0.375000 0.875000 0.250000
0.375000 0.875000 0.375000
0.375000 0.875000 0.500000
0.375000 0.875000 0.625000
0.375000 0.875000 0.750000
0.375000 0.875000 0.875000
0.375000 0.875000 1.000000
0.375000 1.000000 0.000000
0.375000 1.000000 0.125000
0.375000 1.000000 0.250000
0.375000 1.000000 0.375000
0.375000 1.000000 0.500000
0.375000 1.000000 0.625000
0.375000 1.000000 0.750000
0.375000 1.000000 0.875000
0.375000 1.000000 1.000000
0.500000 0.000000 0.000000
0.500000 0.000000 0.125000
0.500000 0.000000 0.250000
0.500000 0.000000 0.375000
0.500000 0.000000 0.500000
0.500000 0.000000 0.625000
0.500000 0.000000 0.750000
0.500000 0.000000 0.875000
0.500000 0.000000 1.000000
0.500000 0.125000 0.000000
0.500000 0.125000 0.125000
0.500000 0.125000 0.250000
0.500000 0.125000 0.375000
0.500000 0.125000 0.500000
0.500000 0.125000 0.625000
0.500000 0.125000 0.750000
0.500000 0.125000 0.875000
0.500000 0.125000 1.000000
0.500000 0.250000 0.000000
0.478992 0.112045 0.071709
0.482353 0.113726 0.113726
0.494118 0.113725 0.250980
0.500000 0.250000 0.500000
0.500000 0.250000 0.625000
0.500000 0.250000 0.750000
0.500000 0.250000 0.875000
0.500000 0.250000 1.000000
0.500000 0.375000 0.000000
0.487187 0.255814 0.030552
0.494139 0.262709 0.113742
0.505860 0.266625 0.250977
0.505882 0.262745 0.435294
0.529411 0.262745 0.662744
0.545098 0.254902 0.839216
0.500000 0.375000 0.875000
0.500000 0.375000 1.000000
0.500000 0.500000 0.000000
0.500000 0.500000 0.125000
0.505885 0.470583 0.109803
0.509767 0.470694 0.247070
0.530176 0.469958 0.442674
0.541165 0.470582 0.666658
0.552941 0.462745 0.839216
0.500000 0.500000 0.875000
0.500000 0.500000 1.000000
0.500000 0.625000 0.000000
0.519175 0.699568 0.034225
0.529411 0.709804 0.105882
0.533302 0.709882 0.250977
0.541064 0.705785 0.435320
0.556876 0.705899 0.666656
0.568627 0.698038 0.843138
0.500000 0.625000 0.875000
0.500000 0.625000 1.000000
0.500000 0.750000 0.000000
0.500000 0.750000 0.125000
0.552941 0.882353 0.094118
0.556863 0.882353 0.247059
0.500000 0.750000 0.500000
0.576471 0.878431 0.666667
0.592157 0.878431 0.847059
0.500000 0.750000 0.875000
0.500000 0.750000 1.000000
0.500000 0.875000 0.000000
0.500000 0.875000 0.125000
0.500000 0.875000 0.250000
0.500000 0.875000 0.375000
0.500000 0.875000 0.500000
0.500000 0.875000 0.625000
0.500000 0.875000 0.750000
0.500000 0.875000 0.875000
0.500000 0.875000 1.000000
0.500000 1.000000 0.000000
0.500000 1.000000 0.125000
0.500000 1.000000 0.250000
0.500000 1.000000 0.375000
0.500000 1.000000 0.500000
0.500000 1.000000 0.625000
0.500000 1.000000 0.750000
0.500000 1.000000 0.875000
0.500000 1.000000 1.000000
0.625000 0.000000 0.000000
0.625000 0.000000 0.125000
0.625000 0.000000 0.250000
0.625000 0.000000 0.375000
0.625000 0.000000 0.500000
0.625000 0.000000 0.625000
0.625000 0.000000 0.750000
0.625000 0.000000 0.875000
0.625000 0.000000 1.000000
0.625000 0.125000 0.000000
0.625000 0.125000 0.125000
0.625000 0.125000 0.250000
0.625000 0.125000 0.375000
0.625000 0.125000 0.500000
0.625000 0.125000 0.625000
0.625000 0.125000 0.750000
0.625000 0.125000 0.875000
0.625000 0.125000 1.000000
0.625000 0.250000 0.000000
0.725490 0.109804 0.090756
0.725490 0.109804 0.117647
0.729412 0.113725 0.254902
0.625000 0.250000 0.500000
0.625000 0.250000 0.625000
0.625000 0.250000 0.750000
0.625000 0.250000 0.875000
0.625000 0.250000 1.000000
0.625000 0.375000 0.000000
0.625000 0.375000 0.125000
0.729412 0.266667 0.117647
0.729412 0.262746 0.250982
0.741176 0.266667 0.447059
0.625000 0.375000 0.625000
0.625000 0.375000 0.750000
0.625000 0.375000 0.875000
0.625000 0.375000 1.000000
0.625000 0.500000 0.000000
0.739434 0.472767 0.073638
0.741177 0.474510 0.113726
0.741208 0.470677 0.250977
0.752930 0.474559 0.447050
0.764706 0.474510 0.678432
0.772551 0.470589 0.847060
0.779608 0.465882 0.912941
0.625000 0.500000 1.000000
0.625000 0.625000 0.000000
0.625000 0.625000 0.125000
0.625000 0.625000 0.250000
0.760787 0.713726 0.262746
0.760746 0.709903 0.447156
0.773115 0.709854 0.670672
0.780354 0.709788 0.851005
0.781863 0.709314 0.864706
0.625000 0.625000 1.000000
0.625000 0.750000 0.000000
0.625000 0.750000 0.125000
0.625000 0.750000 0.250000
0.772549 0.882353 0.250980
0.780337 0.886242 0.450954
0.788172 0.886323 0.678347
0.792141 0.882332 0.850960
0.801799 0.882354 0.918475
0.625000 0.750000 1.000000
0.625000 0.875000 0.000000
0.625000 0.875000 0.125000
0.625000 0.875000 0.250000
0.772549 0.882353 0.250980
0.780392 0.886275 0.450980
0.625000 0.875000 0.625000
0.792157 0.882353 0.850980
0.807843 0.882353 0.960784
0.625000 0.875000 1.000000
0.625000 1.000000 0.000000
0.625000 1.000000 0.125000
0.625000 1.000000 0.250000
0.625000 1.000000 0.375000
0.625000 1.000000 0.500000
0.625000 1.000000 0.625000
0.625000 1.000000 0.750000
0.625000 1.000000 0.875000
0.625000 1.000000 1.000000
0.750000 0.000000 0.000000
0.750000 0.000000 0.125000
0.750000 0.000000 0.250000
0.750000 0.000000 0.375000
0.750000 0.000000 0.500000
0.750000 0.000000 0.625000
0.750000 0.000000 0.750000
0.750000 0.000000 0.875000
0.750000 0.000000 1.000000
0.750000 0.125000 0.000000
0.750000 0.125000 0.125000
0.750000 0.125000 0.250000
0.750000 0.125000 0.375000
0.750000 0.125000 0.500000
0.750000 0.125000 0.625000
0.750000 0.125000 0.750000
0.750000 0.125000 0.875000
0.750000 0.125000 1.000000
0.750000 0.250000 0.000000
0.750000 0.250000 0.125000
0.750000 0.250000 0.250000
0.905883 0.109804 0.274510
0.750000 0.250000 0.500000
0.750000 0.250000 0.625000
0.750000 0.250000 0.750000
0.750000 0.250000 0.875000
0.750000 0.250000 1.000000
0.750000 0.375000 0.000000
0.750000 0.375000 0.125000
0.750000 0.375000 0.250000
0.901962 0.266666 0.266666
0.901961 0.266667 0.458824
0.750000 0.375000 0.625000
0.750000 0.375000 0.750000
0.750000 0.375000 0.875000
0.750000 0.375000 1.000000
0.750000 0.500000 0.000000
0.750000 0.500000 0.125000
0.901961 0.474510 0.117647
0.901961 0.474510 0.262745
0.905883 0.474510 0.450981
0.913725 0.474510 0.682353
0.750000 0.500000 0.750000
0.750000 0.500000 0.875000
0.750000 0.500000 1.000000
0.750000 0.625000 0.000000
0.750000 0.625000 0.125000
0.750000 0.625000 0.250000
0.909804 0.713725 0.262745
0.913706 0.713735 0.458818
0.917659 0.713723 0.682368
0.921569 0.713726 0.858823
0.926866 0.711076 0.930322
0.929412 0.709804 0.964706
0.750000 0.750000 0.000000
0.750000 0.750000 0.125000
0.750000 0.750000 0.250000
0.750000 0.750000 0.375000
0.921569 0.886275 0.458824
0.921513 0.886239 0.678424
0.929598 0.886597 0.858987
0.932940 0.886248 0.906300
0.937255 0.886275 0.964706
0.750000 0.875000 0.000000
0.750000 0.875000 0.125000
0.750000 0.875000 0.250000
0.750000 0.875000 0.375000
0.929412 0.988235 0.458824
0.926001 0.943871 0.680647
0.933036 0.933316 0.858810
0.937524 0.939634 0.934494
0.937255 0.886275 0.964706
0.750000 1.000000 0.000000
0.750000 1.000000 0.125000
0.750000 1.000000 0.250000
0.750000 1.000000 0.375000
0.750000 1.000000 0.500000
0.750000 1.000000 0.625000
0.750000 1.000000 0.750000
0.750000 1.000000 0.875000
0.750000 1.000000 1.000000
0.875000 0.000000 0.000000
0.875000 0.000000 0.125000
0.875000 0.000000 0.250000
0.875000 0.000000 0.375000
0.875000 0.000000 0.500000
0.875000 0.000000 0.625000
0.875000 0.000000 0.750000
0.875000 0.000000 0.875000
0.875000 0.000000 1.000000
0.875000 0.125000 0.000000
0.875000 0.125000 0.125000
0.875000 0.125000 0.250000
0.875000 0.125000 0.375000
0.875000 0.125000 0.500000
0.875000 0.125000 0.625000
0.875000 0.125000 0.750000
0.875000 0.125000 0.875000
0.875000 0.125000 1.000000
0.875000 0.250000 0.000000
0.875000 0.250000 0.125000
0.875000 0.250000 0.250000
0.875000 0.250000 0.375000
0.875000 0.250000 0.500000
0.875000 0.250000 0.625000
0.875000 0.250000 0.750000
0.875000 0.250000 0.875000
0.875000 0.250000 1.000000
0.875000 0.375000 0.000000
0.875000 0.375000 0.125000
0.875000 0.375000 0.250000
0.875000 0.375000 0.375000
0.875000 0.375000 0.500000
0.875000 0.375000 0.625000
0.875000 0.375000 0.750000
0.875000 0.375000 0.875000
0.875000 0.375000 1.000000
0.875000 0.500000 0.000000
0.875000 0.500000 0.125000
0.875000 0.500000 0.250000
0.875000 0.500000 0.375000
0.937255 0.477124 0.454902
0.953987 0.480000 0.686013
0.875000 0.500000 0.750000
0.875000 0.500000 0.875000
0.875000 0.500000 1.000000
0.875000 0.625000 0.000000
0.875000 0.625000 0.125000
0.875000 0.625000 0.250000
0.875000 0.625000 0.375000
0.875000 0.625000 0.500000
0.955485 0.720933 0.693164
0.993180 0.738789 0.862404
0.875000 0.625000 0.875000
0.875000 0.625000 1.000000
0.875000 0.750000 0.000000
0.875000 0.750000 0.125000
0.875000 0.750000 0.250000
0.875000 0.750000 0.375000
1.000000 0.898039 0.556863
0.937406 0.888651 0.691101
0.979956 0.897506 0.878479
0.958824 0.893726 0.950588
0.969507 0.898370 0.962691
0.875000 0.875000 0.000000
0.875000 0.875000 0.125000
0.875000 0.875000 0.250000
0.875000 0.875000 0.375000
0.875000 0.875000 0.500000
1.000000 0.912418 0.765360
0.971787 0.955427 0.902008
0.974513 0.979014 0.973377
0.997535 0.979834 0.990774
0.875000 1.000000 0.000000
0.875000 1.000000 0.125000
0.875000 1.000000 0.250000
0.875000 1.000000 0.375000
0.875000 1.000000 0.500000
0.875000 1.000000 0.625000
0.968627 0.988235 0.909804
0.997547 0.998766 0.995256
0.996621 0.999324 0.997973
1.000000 0.000000 0.000000
1.000000 0.000000 0.125000
1.000000 0.000000 0.250000
1.000000 0.000000 0.375000
1.000000 0.000000 0.500000
1.000000 0.000000 0.625000
1.000000 0.000000 0.750000
1.000000 0.000000 0.875000
1.000000 0.000000 1.000000
1.000000 0.125000 0.000000
1.000000 0.125000 0.125000
1.000000 0.125000 0.250000
1.000000 0.125000 0.375000
1.000000 0.125000 0.500000
1.000000 0.125000 0.625000
1.000000 0.125000 0.750000
1.000000 0.125000 0.875000
1.000000 0.125000 1.000000
1.000000 0.250000 0.000000
1.000000 0.250000 0.125000
1.000000 0.250000 0.250000
1.000000 0.250000 0.375000
1.000000 0.250000 0.500000
1.000000 0.250000 0.625000
1.000000 0.250000 0.750000
1.000000 0.250000 0.875000
1.000000 0.250000 1.000000
1.000000 0.375000 0.000000
1.000000 0.375000 0.125000
1.000000 0.375000 0.250000
1.000000 0.375000 0.375000
1.000000 0.375000 0.500000
1.000000 0.375000 0.625000
1.000000 0.375000 0.750000
1.000000 0.375000 0.875000
1.000000 0.375000 1.000000
1.000000 0.500000 0.000000
1.000000 0.500000 0.125000
1.000000 0.500000 0.250000
1.000000 0.500000 0.375000
1.000000 0.500000 0.500000
1.000000 0.500000 0.625000
1.000000 0.500000 0.750000
1.000000 0.500000 0.875000
1.000000 0.500000 1.000000
1.000000 0.625000 0.000000
1.000000 0.625000 0.125000
1.000000 0.625000 0.250000
1.000000 0.625000 0.375000
1.000000 0.625000 0.500000
1.000000 0.625000 0.625000
1.000000 0.625000 0.750000
1.000000 0.625000 0.875000
1.000000 0.625000 1.000000
1.000000 0.750000 0.000000
1.000000 0.750000 0.125000
1.000000 0.750000 0.250000
1.000000 0.750000 0.375000
1.000000 0.750000 0.500000
1.000000 0.750000 0.625000
1.000000 0.750000 0.750000
1.000000 0.902139 0.887968
1.000000 0.750000 1.000000
1.000000 0.875000 0.000000
1.000000 0.875000 0.125000
1.000000 0.875000 0.250000
1.000000 0.875000 0.375000
1.000000 0.875000 0.500000
1.000000 0.875000 0.625000
1.000000 0.875000 0.750000
1.000000 0.914638 0.962705
1.000000 0.997363 0.998853
1.000000 1.000000 0.000000
1.000000 1.000000 0.125000
1.000000 1.000000 0.250000
1.000000 1.000000 0.375000
1.000000 1.000000 0.500000
1.000000 1.000000 0.625000
1.000000 1.000000 0.750000
1.000000 0.999169 0.997231
1.000000 1.000000 1.000000
