docs/lut/cube_17.cube
TITLE Generated LUT
LUT_3D_SIZE 5
DOMAIN_MIN 0.0 0.0 0.0
DOMAIN_MAX 1.0 1.0 1.0
0.000000 0.000000 0.000000
0.000000 0.000000 0.250000
0.000000 0.000000 0.500000
0.000000 0.000000 0.750000
0.000000 0.000000 1.000000
0.000000 0.250000 0.000000
0.000000 0.250000 0.250000
0.000000 0.250000 0.500000
0.000000 0.250000 0.750000
0.000000 0.250000 1.000000
0.000000 0.500000 0.000000
0.000000 0.500000 0.250000
0.000000 0.500000 0.500000
0.000000 0.500000 0.750000
0.000000 0.500000 1.000000
0.000000 0.750000 0.000000
0.000000 0.750000 0.250000
0.000000 0.750000 0.500000
0.000000 0.750000 0.750000
0.000000 0.750000 1.000000
0.000000 1.000000 0.000000
0.000000 1.000000 0.250000
0.000000 1.000000 0.500000
0.000000 1.000000 0.750000
0.000000 1.000000 1.000000
0.250000 0.000000 0.000000
0.250000 0.000000 0.250000
0.250000 0.000000 0.500000
0.250000 0.000000 0.750000
0.250000 0.000000 1.000000
0.113725 0.109804 0.007843
0.121311 0.109612 0.101808
0.141176 0.101961 0.407843
0.250000 0.250000 0.750000
0.250000 0.250000 1.000000
0.250000 0.500000 0.000000
0.250000 0.500000 0.250000
0.250000 0.500000 0.500000
0.250000 0.500000 0.750000
0.250000 0.500000 1.000000
0.250000 0.750000 0.000000
0.250000 0.750000 0.250000
0.250000 0.750000 0.500000
0.250000 0.750000 0.750000
0.250000 0.750000 1.000000
0.250000 1.000000 0.000000
0.250000 1.000000 0.250000
0.250000 1.000000 0.500000
0.250000 1.000000 0.750000
0.250000 1.000000 1.000000
0.500000 0.000000 0.000000
0.500000 0.000000 0.250000
0.500000 0.000000 0.500000
0.500000 0.000000 0.750000
0.500000 0.000000 1.000000
0.500000 0.250000 0.000000
0.482353 0.113726 0.113726
0.500000 0.250000 0.500000
0.500000 0.250000 0.750000
0.500000 0.250000 1.000000
0.500000 0.500000 0.000000
0.505885 0.470583 0.109803
0.530176 0.469958 0.442674
0.552941 0.462745 0.839216
0.500000 0.500000 1.000000
0.500000 0.750000 0.000000
0.552941 0.882353 0.094118
0.500000 0.750000 0.500000
0.592157 0.878431 0.847059
0.500000 0.750000 1.000000
0.500000 1.000000 0.000000
0.500000 1.000000 0.250000
0.500000 1.000000 0.500000
0.500000 1.000000 0.750000
0.500000 1.000000 1.000000
0.750000 0.000000 0.000000
0.750000 0.000000 0.250000
0.750000 0.000000 0.500000
0.750000 0.000000 0.750000
0.750000 0.000000 1.000000
0.750000 0.250000 0.000000
0.750000 0.250000 0.250000
0.750000 0.250000 0.500000
0.750000 0.250000 0.750000
0.750000 0.250000 1.000000
0.750000 0.500000 0.000000
0.901961 0.474510 0.117647
0.905883 0.474510 0.450981
0.750000 0.500000 0.750000
0.750000 0.500000 1.000000
0.750000 0.750000 0.000000
0.750000 0.750000 0.250000
0.921569 0.886275 0.458824
0.929598 0.886597 0.858987
0.937255 0.886275 0.964706
0.750000 1.000000 0.000000
0.750000 1.000000 0.250000
0.750000 1.000000 0.500000
0.750000 1.000000 0.750000
0.750000 1.000000 1.000000
1.000000 0.000000 0.000000
1.000000 0.000000 0.250000
1.000000 0.000000 0.500000
1.000000 0.000000 0.750000
1.000000 0.000000 1.000000
1.000000 0.250000 0.000000
1.000000 0.250000 0.250000
1.000000 0.250000 0.500000
1.000000 0.250000 0.750000
1.000000 0.250000 1.000000
1.000000 0.500000 0.000000
1.000000 0.500000 0.250000
1.000000 0.500000 0.500000
1.000000 0.500000 0.750000
1.000000 0.500000 1.000000
1.000000 0.750000 0.000000
1.000000 0.750000 0.250000
1.000000 0.750000 0.500000
1.000000 0.750000 0.750000
1.000000 0.750000 1.000000
1.000000 1.000000 0.000000
1.000000 1.000000 0.250000
1.000000 1.000000 0.500000
1.000000 1.000000 0.750000
1.000000 1.000000 1.000000
