docs/lut/cube_17.cube
TITLE Generated LUT
LUT_3D_SIZE 17
DOMAIN_MIN 0.0 0.0 0.0
DOMAIN_MAX 1.0 1.0 1.0
0.000000 0.000000 0.000000
0.000000 0.000000 0.000000
0.005229 0.000000 0.062745
0.007843 0.000000 0.094118
0.000000 0.000000 0.250000
0.000000 0.000000 0.312500
0.000000 0.000000 0.375000
0.000000 0.000000 0.437500
0.000000 0.000000 0.500000
0.000000 0.000000 0.562500
0.000000 0.000000 0.625000
0.000000 0.000000 0.687500
0.000000 0.000000 0.750000
0.000000 0.000000 0.812500
0.000000 0.000000 0.875000
0.000000 0.000000 0.937500
0.000000 0.000000 1.000000
0.000000 0.000000 0.000000
0.000000 0.000000 0.000000
0.000000 0.000000 0.000000
0.000000 0.062500 0.187500
0.000000 0.062500 0.250000
0.000000 0.062500 0.312500
0.000000 0.062500 0.375000
0.000000 0.062500 0.437500
0.000000 0.062500 0.500000
0.000000 0.062500 0.562500
0.000000 0.062500 0.625000
0.000000 0.062500 0.687500
0.000000 0.062500 0.750000
0.000000 0.062500 0.812500
0.000000 0.062500 0.875000
0.000000 0.062500 0.937500
0.000000 0.062500 1.000000
0.000010 0.000086 0.000003
0.000000 0.000000 0.000000
0.000000 0.125000 0.125000
0.000000 0.125000 0.187500
0.000000 0.125000 0.250000
0.000000 0.125000 0.312500
0.000000 0.125000 0.375000
0.000000 0.125000 0.437500
0.000000 0.125000 0.500000
0.000000 0.125000 0.562500
0.000000 0.125000 0.625000
0.000000 0.125000 0.687500
0.000000 0.125000 0.750000
0.000000 0.125000 0.812500
0.000000 0.125000 0.875000
0.000000 0.125000 0.937500
0.000000 0.125000 1.000000
0.011765 0.105882 0.003922
0.011765 0.105882 0.003922
0.000000 0.187500 0.125000
0.000000 0.187500 0.187500
0.000000 0.187500 0.250000
0.000000 0.187500 0.312500
0.000000 0.187500 0.375000
0.000000 0.187500 0.437500
0.000000 0.187500 0.500000
0.000000 0.187500 0.562500
0.000000 0.187500 0.625000
0.000000 0.187500 0.687500
0.000000 0.187500 0.750000
0.000000 0.187500 0.812500
0.000000 0.187500 0.875000
0.000000 0.187500 0.937500
0.000000 0.187500 1.000000
0.000000 0.250000 0.000000
0.000000 0.250000 0.062500
0.000000 0.250000 0.125000
0.000000 0.250000 0.187500
0.000000 0.250000 0.250000
0.000000 0.250000 0.312500
0.000000 0.250000 0.375000
0.000000 0.250000 0.437500
0.000000 0.250000 0.500000
0.000000 0.250000 0.562500
0.000000 0.250000 0.625000
0.000000 0.250000 0.687500
0.000000 0.250000 0.750000
0.000000 0.250000 0.812500
0.000000 0.250000 0.875000
0.000000 0.250000 0.937500
0.000000 0.250000 1.000000
0.000000 0.312500 0.000000
0.000000 0.312500 0.062500
0.000000 0.312500 0.125000
0.000000 0.312500 0.187500
0.000000 0.312500 0.250000
0.000000 0.312500 0.312500
0.000000 0.312500 0.375000
0.000000 0.312500 0.437500
0.000000 0.312500 0.500000
0.000000 0.312500 0.562500
0.000000 0.312500 0.625000
0.000000 0.312500 0.687500
0.000000 0.312500 0.750000
0.000000 0.312500 0.812500
0.000000 0.312500 0.875000
0.000000 0.312500 0.937500
0.000000 0.312500 1.000000
0.000000 0.375000 0.000000
0.000000 0.375000 0.062500
0.000000 0.375000 0.125000
0.000000 0.375000 0.187500
0.000000 0.375000 0.250000
0.000000 0.375000 0.312500
0.000000 0.375000 0.375000
0.000000 0.375000 0.437500
0.000000 0.375000 0.500000
0.000000 0.375000 0.562500
0.000000 0.375000 0.625000
0.000000 0.375000 0.687500
0.000000 0.375000 0.750000
0.000000 0.375000 0.812500
0.000000 0.375000 0.875000
0.000000 0.375000 0.937500
0.000000 0.375000 1.000000
0.000000 0.437500 0.000000
0.000000 0.437500 0.062500
0.000000 0.437500 0.125000
0.000000 0.437500 0.187500
0.000000 0.437500 0.250000
0.000000 0.437500 0.312500
0.000000 0.437500 0.375000
0.000000 0.437500 0.437500
0.000000 0.437500 0.500000
0.000000 0.437500 0.562500
0.000000 0.437500 0.625000
0.000000 0.437500 0.687500
0.000000 0.437500 0.750000
0.000000 0.437500 0.812500
0.000000 0.437500 0.875000
0.000000 0.437500 0.937500
0.000000 0.437500 1.000000
0.000000 0.500000 0.000000
0.000000 0.500000 0.062500
0.000000 0.500000 0.125000
0.000000 0.500000 0.187500
0.000000 0.500000 0.250000
0.000000 0.500000 0.312500
0.000000 0.500000 0.375000
0.000000 0.500000 0.437500
0.000000 0.500000 0.500000
0.000000 0.500000 0.562500
0.000000 0.500000 0.625000
0.000000 0.500000 0.687500
0.000000 0.500000 0.750000
0.000000 0.500000 0.812500
0.000000 0.500000 0.875000
0.000000 0.500000 0.937500
0.000000 0.500000 1.000000
0.000000 0.562500 0.000000
0.000000 0.562500 0.062500
0.000000 0.562500 0.125000
0.000000 0.562500 0.187500
0.000000 0.562500 0.250000
0.000000 0.562500 0.312500
0.000000 0.562500 0.375000
0.000000 0.562500 0.437500
0.000000 0.562500 0.500000
0.000000 0.562500 0.562500
0.000000 0.562500 0.625000
0.000000 0.562500 0.687500
0.000000 0.562500 0.750000
0.000000 0.562500 0.812500
0.000000 0.562500 0.875000
0.000000 0.562500 0.937500
0.000000 0.562500 1.000000
0.000000 0.625000 0.000000
0.000000 0.625000 0.062500
0.000000 0.625000 0.125000
0.000000 0.625000 0.187500
0.000000 0.625000 0.250000
0.000000 0.625000 0.312500
0.000000 0.625000 0.375000
0.000000 0.625000 0.437500
0.000000 0.625000 0.500000
0.000000 0.625000 0.562500
0.000000 0.625000 0.625000
0.000000 0.625000 0.687500
0.000000 0.625000 0.750000
0.000000 0.625000 0.812500
0.000000 0.625000 0.875000
0.000000 0.625000 0.937500
0.000000 0.625000 1.000000
0.000000 0.687500 0.000000
0.000000 0.687500 0.062500
0.000000 0.687500 0.125000
0.000000 0.687500 0.187500
0.000000 0.687500 0.250000
0.000000 0.687500 0.312500
0.000000 0.687500 0.375000
0.000000 0.687500 0.437500
0.000000 0.687500 0.500000
0.000000 0.687500 0.562500
0.000000 0.687500 0.625000
0.000000 0.687500 0.687500
0.000000 0.687500 0.750000
0.000000 0.687500 0.812500
0.000000 0.687500 0.875000
0.000000 0.687500 0.937500
0.000000 0.687500 1.000000
0.000000 0.750000 0.000000
0.000000 0.750000 0.062500
0.000000 0.750000 0.125000
0.000000 0.750000 0.187500
0.000000 0.750000 0.250000
0.000000 0.750000 0.312500
0.000000 0.750000 0.375000
0.000000 0.750000 0.437500
0.000000 0.750000 0.500000
0.000000 0.750000 0.562500
0.000000 0.750000 0.625000
0.000000 0.750000 0.687500
0.000000 0.750000 0.750000
0.000000 0.750000 0.812500
0.000000 0.750000 0.875000
0.000000 0.750000 0.937500
0.000000 0.750000 1.000000
0.000000 0.812500 0.000000
0.000000 0.812500 0.062500
0.000000 0.812500 0.125000
0.000000 0.812500 0.187500
0.000000 0.812500 0.250000
0.000000 0.812500 0.312500
0.000000 0.812500 0.375000
0.000000 0.812500 0.437500
0.000000 0.812500 0.500000
0.000000 0.812500 0.562500
0.000000 0.812500 0.625000
0.000000 0.812500 0.687500
0.000000 0.812500 0.750000
0.000000 0.812500 0.812500
0.000000 0.812500 0.875000
0.000000 0.812500 0.937500
0.000000 0.812500 1.000000
0.000000 0.875000 0.000000
0.000000 0.875000 0.062500
0.000000 0.875000 0.125000
0.000000 0.875000 0.187500
0.000000 0.875000 0.250000
0.000000 0.875000 0.312500
0.000000 0.875000 0.375000
0.000000 0.875000 0.437500
0.000000 0.875000 0.500000
0.000000 0.875000 0.562500
0.000000 0.875000 0.625000
0.000000 0.875000 0.687500
0.000000 0.875000 0.750000
0.000000 0.875000 0.812500
0.000000 0.875000 0.875000
0.000000 0.875000 0.937500
0.000000 0.875000 1.000000
0.000000 0.937500 0.000000
0.000000 0.937500 0.062500
0.000000 0.937500 0.125000
0.000000 0.937500 0.187500
0.000000 0.937500 0.250000
0.000000 0.937500 0.312500
0.000000 0.937500 0.375000
0.000000 0.937500 0.437500
0.000000 0.937500 0.500000
0.000000 0.937500 0.562500
0.000000 0.937500 0.625000
0.000000 0.937500 0.687500
0.000000 0.937500 0.750000
0.000000 0.937500 0.812500
0.000000 0.937500 0.875000
0.000000 0.937500 0.937500
0.000000 0.937500 1.000000
0.000000 1.000000 0.000000
0.000000 1.000000 0.062500
0.000000 1.000000 0.125000
0.000000 1.000000 0.187500
0.000000 1.000000 0.250000
0.000000 1.000000 0.312500
0.000000 1.000000 0.375000
0.000000 1.000000 0.437500
0.000000 1.000000 0.500000
0.000000 1.000000 0.562500
0.000000 1.000000 0.625000
0.000000 1.000000 0.687500
0.000000 1.000000 0.750000
0.000000 1.000000 0.812500
0.000000 1.000000 0.875000
0.000000 1.000000 0.937500
0.000000 1.000000 1.000000
0.000000 0.000000 0.000000
0.000000 0.000000 0.000000
0.062500 0.000000 0.125000
0.062500 0.000000 0.187500
0.062500 0.000000 0.250000
0.062500 0.000000 0.312500
0.062500 0.000000 0.375000
0.062500 0.000000 0.437500
0.062500 0.000000 0.500000
0.062500 0.000000 0.562500
0.062500 0.000000 0.625000
0.062500 0.000000 0.687500
0.062500 0.000000 0.750000
0.062500 0.000000 0.812500
0.062500 0.000000 0.875000
0.062500 0.000000 0.937500
0.062500 0.000000 1.000000
0.000000 0.000000 0.000000
0.000000 0.000000 0.000000
0.000284 0.000000 0.003412
0.007843 0.000000 0.094118
0.007843 0.000000 0.094118
0.018301 0.002614 0.135948
0.062500 0.062500 0.375000
0.062500 0.062500 0.437500
0.062500 0.062500 0.500000
0.062500 0.062500 0.562500
0.062500 0.062500 0.625000
0.062500 0.062500 0.687500
0.062500 0.062500 0.750000
0.062500 0.062500 0.812500
0.062500 0.062500 0.875000
0.062500 0.062500 0.937500
0.062500 0.062500 1.000000
0.000085 0.000764 0.000028
0.000529 0.004764 0.000176
0.000841 0.007273 0.000660
0.008138 0.002560 0.094118
0.014446 0.057227 0.094118
0.026331 0.085714 0.147899
0.062500 0.125000 0.375000
0.062500 0.125000 0.437500
0.062500 0.125000 0.500000
0.062500 0.125000 0.562500
0.062500 0.125000 0.625000
0.062500 0.125000 0.687500
0.062500 0.125000 0.750000
0.062500 0.125000 0.812500
0.062500 0.125000 0.875000
0.062500 0.125000 0.937500
0.062500 0.125000 1.000000
0.011765 0.105882 0.003922
0.011765 0.105885 0.003922
0.011765 0.105882 0.003922
0.019608 0.101961 0.094118
0.019608 0.101961 0.094118
0.034926 0.098897 0.192157
0.062500 0.187500 0.375000
0.062500 0.187500 0.437500
0.062500 0.187500 0.500000
0.062500 0.187500 0.562500
0.062500 0.187500 0.625000
0.062500 0.187500 0.687500
0.062500 0.187500 0.750000
0.062500 0.187500 0.812500
0.062500 0.187500 0.875000
0.062500 0.187500 0.937500
0.062500 0.187500 1.000000
0.062500 0.250000 0.000000
0.011765 0.105882 0.003922
0.011765 0.105882 0.003922
0.062500 0.250000 0.187500
0.062500 0.250000 0.250000
0.062500 0.250000 0.312500
0.062500 0.250000 0.375000
0.062500 0.250000 0.437500
0.062500 0.250000 0.500000
0.062500 0.250000 0.562500
0.062500 0.250000 0.625000
0.062500 0.250000 0.687500
0.062500 0.250000 0.750000
0.062500 0.250000 0.812500
0.062500 0.250000 0.875000
0.062500 0.250000 0.937500
0.062500 0.250000 1.000000
0.062500 0.312500 0.000000
0.062500 0.312500 0.062500
0.062500 0.312500 0.125000
0.062500 0.312500 0.187500
0.062500 0.312500 0.250000
0.062500 0.312500 0.312500
0.062500 0.312500 0.375000
0.062500 0.312500 0.437500
0.062500 0.312500 0.500000
0.062500 0.312500 0.562500
0.062500 0.312500 0.625000
0.062500 0.312500 0.687500
0.062500 0.312500 0.750000
0.062500 0.312500 0.812500
0.062500 0.312500 0.875000
0.062500 0.312500 0.937500
0.062500 0.312500 1.000000
0.062500 0.375000 0.000000
0.062500 0.375000 0.062500
0.062500 0.375000 0.125000
0.062500 0.375000 0.187500
0.062500 0.375000 0.250000
0.062500 0.375000 0.312500
0.062500 0.375000 0.375000
0.062500 0.375000 0.437500
0.062500 0.375000 0.500000
0.062500 0.375000 0.562500
0.062500 0.375000 0.625000
0.062500 0.375000 0.687500
0.062500 0.375000 0.750000
0.062500 0.375000 0.812500
0.062500 0.375000 0.875000
0.062500 0.375000 0.937500
0.062500 0.375000 1.000000
0.062500 0.437500 0.000000
0.062500 0.437500 0.062500
0.062500 0.437500 0.125000
0.062500 0.437500 0.187500
0.062500 0.437500 0.250000
0.062500 0.437500 0.312500
0.062500 0.437500 0.375000
0.062500 0.437500 0.437500
0.062500 0.437500 0.500000
0.062500 0.437500 0.562500
0.062500 0.437500 0.625000
0.062500 0.437500 0.687500
0.062500 0.437500 0.750000
0.062500 0.437500 0.812500
0.062500 0.437500 0.875000
0.062500 0.437500 0.937500
0.062500 0.437500 1.000000
0.062500 0.500000 0.000000
0.062500 0.500000 0.062500
0.062500 0.500000 0.125000
0.062500 0.500000 0.187500
0.062500 0.500000 0.250000
0.062500 0.500000 0.312500
0.062500 0.500000 0.375000
0.062500 0.500000 0.437500
0.062500 0.500000 0.500000
0.062500 0.500000 0.562500
0.062500 0.500000 0.625000
0.062500 0.500000 0.687500
0.062500 0.500000 0.750000
0.062500 0.500000 0.812500
0.062500 0.500000 0.875000
0.062500 0.500000 0.937500
0.062500 0.500000 1.000000
0.062500 0.562500 0.000000
0.062500 0.562500 0.062500
0.062500 0.562500 0.125000
0.062500 0.562500 0.187500
0.062500 0.562500 0.250000
0.062500 0.562500 0.312500
0.062500 0.562500 0.375000
0.062500 0.562500 0.437500
0.062500 0.562500 0.500000
0.062500 0.562500 0.562500
0.062500 0.562500 0.625000
0.062500 0.562500 0.687500
0.062500 0.562500 0.750000
0.062500 0.562500 0.812500
0.062500 0.562500 0.875000
0.062500 0.562500 0.937500
0.062500 0.562500 1.000000
0.062500 0.625000 0.000000
0.062500 0.625000 0.062500
0.062500 0.625000 0.125000
0.062500 0.625000 0.187500
0.062500 0.625000 0.250000
0.062500 0.625000 0.312500
0.062500 0.625000 0.375000
0.062500 0.625000 0.437500
0.062500 0.625000 0.500000
0.062500 0.625000 0.562500
0.062500 0.625000 0.625000
0.062500 0.625000 0.687500
0.062500 0.625000 0.750000
0.062500 0.625000 0.812500
0.062500 0.625000 0.875000
0.062500 0.625000 0.937500
0.062500 0.625000 1.000000
0.062500 0.687500 0.000000
0.062500 0.687500 0.062500
0.062500 0.687500 0.125000
0.062500 0.687500 0.187500
0.062500 0.687500 0.250000
0.062500 0.687500 0.312500
0.062500 0.687500 0.375000
0.062500 0.687500 0.437500
0.062500 0.687500 0.500000
0.062500 0.687500 0.562500
0.062500 0.687500 0.625000
0.062500 0.687500 0.687500
0.062500 0.687500 0.750000
0.062500 0.687500 0.812500
0.062500 0.687500 0.875000
0.062500 0.687500 0.937500
0.062500 0.687500 1.000000
0.062500 0.750000 0.000000
0.062500 0.750000 0.062500
0.062500 0.750000 0.125000
0.062500 0.750000 0.187500
0.062500 0.750000 0.250000
0.062500 0.750000 0.312500
0.062500 0.750000 0.375000
0.062500 0.750000 0.437500
0.062500 0.750000 0.500000
0.062500 0.750000 0.562500
0.062500 0.750000 0.625000
0.062500 0.750000 0.687500
0.062500 0.750000 0.750000
0.062500 0.750000 0.812500
0.062500 0.750000 0.875000
0.062500 0.750000 0.937500
0.062500 0.750000 1.000000
0.062500 0.812500 0.000000
0.062500 0.812500 0.062500
0.062500 0.812500 0.125000
0.062500 0.812500 0.187500
0.062500 0.812500 0.250000
0.062500 0.812500 0.312500
0.062500 0.812500 0.375000
0.062500 0.812500 0.437500
0.062500 0.812500 0.500000
0.062500 0.812500 0.562500
0.062500 0.812500 0.625000
0.062500 0.812500 0.687500
0.062500 0.812500 0.750000
0.062500 0.812500 0.812500
0.062500 0.812500 0.875000
0.062500 0.812500 0.937500
0.062500 0.812500 1.000000
0.062500 0.875000 0.000000
0.062500 0.875000 0.062500
0.062500 0.875000 0.125000
0.062500 0.875000 0.187500
0.062500 0.875000 0.250000
0.062500 0.875000 0.312500
0.062500 0.875000 0.375000
0.062500 0.875000 0.437500
0.062500 0.875000 0.500000
0.062500 0.875000 0.562500
0.062500 0.875000 0.625000
0.062500 0.875000 0.687500
0.062500 0.875000 0.750000
0.062500 0.875000 0.812500
0.062500 0.875000 0.875000
0.062500 0.875000 0.937500
0.062500 0.875000 1.000000
0.062500 0.937500 0.000000
0.062500 0.937500 0.062500
0.062500 0.937500 0.125000
0.062500 0.937500 0.187500
0.062500 0.937500 0.250000
0.062500 0.937500 0.312500
0.062500 0.937500 0.375000
0.062500 0.937500 0.437500
0.062500 0.937500 0.500000
0.062500 0.937500 0.562500
0.062500 0.937500 0.625000
0.062500 0.937500 0.687500
0.062500 0.937500 0.750000
0.062500 0.937500 0.812500
0.062500 0.937500 0.875000
0.062500 0.937500 0.937500
0.062500 0.937500 1.000000
0.062500 1.000000 0.000000
0.062500 1.000000 0.062500
0.062500 1.000000 0.125000
0.062500 1.000000 0.187500
0.062500 1.000000 0.250000
0.062500 1.000000 0.312500
0.062500 1.000000 0.375000
0.062500 1.000000 0.437500
0.062500 1.000000 0.500000
0.062500 1.000000 0.562500
0.062500 1.000000 0.625000
0.062500 1.000000 0.687500
0.062500 1.000000 0.750000
0.062500 1.000000 0.812500
0.062500 1.000000 0.875000
0.062500 1.000000 0.937500
0.062500 1.000000 1.000000
0.000000 0.000000 0.000000
0.125000 0.000000 0.062500
0.125000 0.000000 0.125000
0.125000 0.000000 0.187500
0.125000 0.000000 0.250000
0.125000 0.000000 0.312500
0.125000 0.000000 0.375000
0.125000 0.000000 0.437500
0.125000 0.000000 0.500000
0.125000 0.000000 0.562500
0.125000 0.000000 0.625000
0.125000 0.000000 0.687500
0.125000 0.000000 0.750000
0.125000 0.000000 0.812500
0.125000 0.000000 0.875000
0.125000 0.000000 0.937500
0.125000 0.000000 1.000000
0.001175 0.000044 0.000044
0.001484 0.000055 0.000055
0.000402 0.000000 0.004827
0.011359 0.000135 0.094253
0.017402 0.000368 0.094485
0.041262 0.003240 0.160443
0.070588 0.003922 0.190196
0.125000 0.062500 0.437500
0.125000 0.062500 0.500000
0.125000 0.062500 0.562500
0.125000 0.062500 0.625000
0.125000 0.062500 0.687500
0.125000 0.062500 0.750000
0.125000 0.062500 0.812500
0.125000 0.062500 0.875000
0.125000 0.062500 0.937500
0.125000 0.062500 1.000000
0.005993 0.009480 0.000528
0.015116 0.010531 0.000892
0.023658 0.052201 0.005593
0.036200 0.075559 0.095493
0.023339 0.072136 0.094482
0.064093 0.018382 0.176593
0.086275 0.003922 0.201307
0.125000 0.125000 0.437500
0.125000 0.125000 0.500000
0.125000 0.125000 0.562500
0.125000 0.125000 0.625000
0.125000 0.125000 0.687500
0.125000 0.125000 0.750000
0.125000 0.125000 0.812500
0.125000 0.125000 0.875000
0.125000 0.125000 0.937500
0.125000 0.125000 1.000000
0.015158 0.106012 0.004052
0.027373 0.106510 0.004525
0.045882 0.106666 0.015321
0.095350 0.107815 0.099948
0.040947 0.103601 0.095758
0.052640 0.100712 0.201758
0.042767 0.098503 0.220226
0.125000 0.187500 0.437500
0.125000 0.187500 0.500000
0.125000 0.187500 0.562500
0.125000 0.187500 0.625000
0.125000 0.187500 0.687500
0.125000 0.187500 0.750000
0.125000 0.187500 0.812500
0.125000 0.187500 0.875000
0.125000 0.187500 0.937500
0.125000 0.187500 1.000000
0.028078 0.106510 0.004549
0.068921 0.108079 0.006120
0.090254 0.108712 0.027566
0.111846 0.109054 0.101211
0.094039 0.107686 0.099843
0.082155 0.103834 0.222164
0.087422 0.104326 0.227989
0.116563 0.105566 0.278325
0.141176 0.101961 0.407843
0.125000 0.250000 0.562500
0.125000 0.250000 0.625000
0.125000 0.250000 0.687500
0.125000 0.250000 0.750000
0.125000 0.250000 0.812500
0.125000 0.250000 0.875000
0.125000 0.250000 0.937500
0.125000 0.250000 1.000000
0.125000 0.312500 0.000000
0.094118 0.179412 0.008824
0.101829 0.181494 0.020225
0.109804 0.181513 0.099720
0.086835 0.185994 0.097479
0.141176 0.250980 0.235294
0.129412 0.109804 0.235294
0.134454 0.127731 0.284594
0.125000 0.312500 0.500000
0.125000 0.312500 0.562500
0.125000 0.312500 0.625000
0.125000 0.312500 0.687500
0.125000 0.312500 0.750000
0.125000 0.312500 0.812500
0.125000 0.312500 0.875000
0.125000 0.312500 0.937500
0.125000 0.312500 1.000000
0.125000 0.375000 0.000000
0.125000 0.375000 0.062500
0.125000 0.375000 0.125000
0.125000 0.375000 0.187500
0.125000 0.375000 0.250000
0.125000 0.375000 0.312500
0.125000 0.375000 0.375000
0.125000 0.375000 0.437500
0.125000 0.375000 0.500000
0.125000 0.375000 0.562500
0.125000 0.375000 0.625000
0.125000 0.375000 0.687500
0.125000 0.375000 0.750000
0.125000 0.375000 0.812500
0.125000 0.375000 0.875000
0.125000 0.375000 0.937500
0.125000 0.375000 1.000000
0.125000 0.437500 0.000000
0.125000 0.437500 0.062500
0.125000 0.437500 0.125000
0.125000 0.437500 0.187500
0.125000 0.437500 0.250000
0.125000 0.437500 0.312500
0.125000 0.437500 0.375000
0.125000 0.437500 0.437500
0.125000 0.437500 0.500000
0.125000 0.437500 0.562500
0.125000 0.437500 0.625000
0.125000 0.437500 0.687500
0.125000 0.437500 0.750000
0.125000 0.437500 0.812500
0.125000 0.437500 0.875000
0.125000 0.437500 0.937500
0.125000 0.437500 1.000000
0.125000 0.500000 0.000000
0.125000 0.500000 0.062500
0.125000 0.500000 0.125000
0.125000 0.500000 0.187500
0.125000 0.500000 0.250000
0.125000 0.500000 0.312500
0.125000 0.500000 0.375000
0.125000 0.500000 0.437500
0.125000 0.500000 0.500000
0.125000 0.500000 0.562500
0.125000 0.500000 0.625000
0.125000 0.500000 0.687500
0.125000 0.500000 0.750000
0.125000 0.500000 0.812500
0.125000 0.500000 0.875000
0.125000 0.500000 0.937500
0.125000 0.500000 1.000000
0.125000 0.562500 0.000000
0.125000 0.562500 0.062500
0.125000 0.562500 0.125000
0.125000 0.562500 0.187500
0.125000 0.562500 0.250000
0.125000 0.562500 0.312500
0.125000 0.562500 0.375000
0.125000 0.562500 0.437500
0.125000 0.562500 0.500000
0.125000 0.562500 0.562500
0.125000 0.562500 0.625000
0.125000 0.562500 0.687500
0.125000 0.562500 0.750000
0.125000 0.562500 0.812500
0.125000 0.562500 0.875000
0.125000 0.562500 0.937500
0.125000 0.562500 1.000000
0.125000 0.625000 0.000000
0.125000 0.625000 0.062500
0.125000 0.625000 0.125000
0.125000 0.625000 0.187500
0.125000 0.625000 0.250000
0.125000 0.625000 0.312500
0.125000 0.625000 0.375000
0.125000 0.625000 0.437500
0.125000 0.625000 0.500000
0.125000 0.625000 0.562500
0.125000 0.625000 0.625000
0.125000 0.625000 0.687500
0.125000 0.625000 0.750000
0.125000 0.625000 0.812500
0.125000 0.625000 0.875000
0.125000 0.625000 0.937500
0.125000 0.625000 1.000000
0.125000 0.687500 0.000000
0.125000 0.687500 0.062500
0.125000 0.687500 0.125000
0.125000 0.687500 0.187500
0.125000 0.687500 0.250000
0.125000 0.687500 0.312500
0.125000 0.687500 0.375000
0.125000 0.687500 0.437500
0.125000 0.687500 0.500000
0.125000 0.687500 0.562500
0.125000 0.687500 0.625000
0.125000 0.687500 0.687500
0.125000 0.687500 0.750000
0.125000 0.687500 0.812500
0.125000 0.687500 0.875000
0.125000 0.687500 0.937500
0.125000 0.687500 1.000000
0.125000 0.750000 0.000000
0.125000 0.750000 0.062500
0.125000 0.750000 0.125000
0.125000 0.750000 0.187500
0.125000 0.750000 0.250000
0.125000 0.750000 0.312500
0.125000 0.750000 0.375000
0.125000 0.750000 0.437500
0.125000 0.750000 0.500000
0.125000 0.750000 0.562500
0.125000 0.750000 0.625000
0.125000 0.750000 0.687500
0.125000 0.750000 0.750000
0.125000 0.750000 0.812500
0.125000 0.750000 0.875000
0.125000 0.750000 0.937500
0.125000 0.750000 1.000000
0.125000 0.812500 0.000000
0.125000 0.812500 0.062500
0.125000 0.812500 0.125000
0.125000 0.812500 0.187500
0.125000 0.812500 0.250000
0.125000 0.812500 0.312500
0.125000 0.812500 0.375000
0.125000 0.812500 0.437500
0.125000 0.812500 0.500000
0.125000 0.812500 0.562500
0.125000 0.812500 0.625000
0.125000 0.812500 0.687500
0.125000 0.812500 0.750000
0.125000 0.812500 0.812500
0.125000 0.812500 0.875000
0.125000 0.812500 0.937500
0.125000 0.812500 1.000000
0.125000 0.875000 0.000000
0.125000 0.875000 0.062500
0.125000 0.875000 0.125000
0.125000 0.875000 0.187500
0.125000 0.875000 0.250000
0.125000 0.875000 0.312500
0.125000 0.875000 0.375000
0.125000 0.875000 0.437500
0.125000 0.875000 0.500000
0.125000 0.875000 0.562500
0.125000 0.875000 0.625000
0.125000 0.875000 0.687500
0.125000 0.875000 0.750000
0.125000 0.875000 0.812500
0.125000 0.875000 0.875000
0.125000 0.875000 0.937500
0.125000 0.875000 1.000000
0.125000 0.937500 0.000000
0.125000 0.937500 0.062500
0.125000 0.937500 0.125000
0.125000 0.937500 0.187500
0.125000 0.937500 0.250000
0.125000 0.937500 0.312500
0.125000 0.937500 0.375000
0.125000 0.937500 0.437500
0.125000 0.937500 0.500000
0.125000 0.937500 0.562500
0.125000 0.937500 0.625000
0.125000 0.937500 0.687500
0.125000 0.937500 0.750000
0.125000 0.937500 0.812500
0.125000 0.937500 0.875000
0.125000 0.937500 0.937500
0.125000 0.937500 1.000000
0.125000 1.000000 0.000000
0.125000 1.000000 0.062500
0.125000 1.000000 0.125000
0.125000 1.000000 0.187500
0.125000 1.000000 0.250000
0.125000 1.000000 0.312500
0.125000 1.000000 0.375000
0.125000 1.000000 0.437500
0.125000 1.000000 0.500000
0.125000 1.000000 0.562500
0.125000 1.000000 0.625000
0.125000 1.000000 0.687500
0.125000 1.000000 0.750000
0.125000 1.000000 0.812500
0.125000 1.000000 0.875000
0.125000 1.000000 0.937500
0.125000 1.000000 1.000000
0.187500 0.000000 0.000000
0.187500 0.000000 0.062500
0.187500 0.000000 0.125000
0.187500 0.000000 0.187500
0.187500 0.000000 0.250000
0.187500 0.000000 0.312500
0.187500 0.000000 0.375000
0.187500 0.000000 0.437500
0.187500 0.000000 0.500000
0.187500 0.000000 0.562500
0.187500 0.000000 0.625000
0.187500 0.000000 0.687500
0.187500 0.000000 0.750000
0.187500 0.000000 0.812500
0.187500 0.000000 0.875000
0.187500 0.000000 0.937500
0.187500 0.000000 1.000000
0.105883 0.003922 0.003922
